X:3432
T:Corney is Coming
M:4/4
L:1/8
R:reel
D:Gearóid Ó hAllmhuráin and Patrick Ourceau: Tracin'
Z:Devin McCabe
K:D
B|Addc defd=|cABG EFGE|Dddc defg|afge fdec|
!Addc defd|=cABG EFGE|Dddc defd|(3gfe) cd edd:|
!A|dcdf afdB|=cdef gece|dcdf afdf|(3gfe) cd eddf|
!afdf afdf|(3gfe) =ce gece|defg a2 af|gecd edd:|


